src/assets/images/bene3.svg

<svg width="40" height="40" viewBox="0 0 40 40" fill="none" xmlns="http://www.w3.org/2000/svg">
<circle cx="19.563" cy="20.0474" r="19.563" fill="url(#paint0_linear_673_2)"/>
<path d="M10.3543 20.375C10.3522 18.6962 10.8781 17.0592 11.8575 15.6956C12.837 14.3321 14.2204 13.3111 15.8121 12.7771C17.4038 12.2431 19.1231 12.2232 20.7267 12.7201C22.3303 13.217 23.7371 14.2056 24.748 15.546L24.6434 14.4891C23.6661 13.4578 22.4484 12.685 21.0992 12.24C19.7499 11.7949 18.3114 11.6915 16.9124 11.9389C15.5134 12.1863 14.1975 12.7768 13.0828 13.6576C11.9681 14.5385 11.0892 15.682 10.5249 16.9859C9.96065 18.2897 9.7286 19.7132 9.84954 21.1288C9.97049 22.5444 10.4407 23.9078 11.2179 25.0971C11.9952 26.2863 13.0554 27.2642 14.3034 27.9431C15.5514 28.6221 16.9483 28.9808 18.369 28.9873C18.5221 28.9873 18.6753 28.9873 18.8284 28.9873L18.2495 28.3823C16.1462 28.35 14.1399 27.4925 12.663 25.9946C11.1861 24.4968 10.357 22.4785 10.3543 20.375Z" fill="white"/>
<path d="M18.3593 12.8076C16.4227 12.8308 14.5687 13.596 13.1796 14.9456C11.7905 16.2952 10.972 18.1263 10.893 20.0614C10.814 21.9966 11.4804 23.8883 12.7549 25.3466C14.0294 26.805 15.8148 27.7188 17.7431 27.8997L17.4032 27.5636C16.1794 27.4031 15.0167 26.9336 14.0247 26.1993C13.0326 25.465 12.2439 24.4902 11.7328 23.3668C11.2218 22.2433 11.0053 21.0082 11.1037 19.7779C11.2022 18.5476 11.6123 17.3626 12.2955 16.3347C12.9786 15.3068 13.9123 14.4698 15.0085 13.9026C16.1047 13.3354 17.3273 13.0567 18.561 13.0928C19.7947 13.1289 20.9988 13.4786 22.06 14.1089C23.1211 14.7392 24.0043 15.6294 24.6262 16.6955L24.8503 16.6582V16.464C24.1765 15.3456 23.2244 14.4209 22.0868 13.7801C20.9492 13.1393 19.6649 12.8043 18.3593 12.8076Z" fill="white"/>
<path d="M18.0059 13.5518V19.4751C17.9527 19.4967 17.9014 19.5229 17.8528 19.5535L14.3234 18.3397L13.9238 19.5012L17.4606 20.7187C17.5182 20.8685 17.6121 21.0016 17.7339 21.106C17.8558 21.2104 18.0016 21.2829 18.1584 21.3169C18.3152 21.3509 18.478 21.3454 18.6321 21.3008C18.7863 21.2563 18.9269 21.1741 19.0413 21.0616C19.1558 20.9492 19.2405 20.8101 19.2878 20.6568C19.3351 20.5035 19.3435 20.3408 19.3123 20.1834C19.2811 20.026 19.2112 19.8789 19.109 19.7552C19.0068 19.6316 18.8754 19.5353 18.7267 19.4751V13.5518H18.0059Z" fill="white"/>
<path d="M29.4818 26.953L29.1494 26.9306H29.1233L27.6593 24.2938L27.4538 23.954L27.1551 23.4871L26.4679 23.3228L25.8815 23.1697L25.4371 23.0464L25.1495 22.9718H25.0748L25.284 22.6282L25.8068 21.743L26.3633 20.8056L26.9609 19.8047L28.1037 17.885L27.0094 17.702L26.804 17.6647L26.5239 17.6199L25.8404 17.5041L25.5678 17.4443L25.3624 17.4817L25.0636 17.534L20.8172 18.2809L20.5483 19.8794L24.4474 19.3789L21.9862 22.4862L21.5081 23.0464L18.1954 26.3368L17.6875 26.572L18.737 27.6103L19.0245 27.8941L19.4316 28.2975L19.637 28.4992L19.9171 28.2228L20.1674 27.9763C20.0867 27.8914 19.9903 27.8229 19.8835 27.7746C19.8056 27.7414 19.7258 27.7127 19.6445 27.6887L19.5885 27.5281L19.5399 27.3787L22.6323 24.1893L24.298 24.5628L24.6192 24.6337L25.0823 24.7345L25.7209 24.8765L25.8741 24.9101L27.6966 27.7821L27.7265 28.3423L30.8637 27.0015C30.8637 27.0015 30.2026 25.9894 29.4818 26.953Z" fill="white"/>
<path d="M25.6813 15.8294L25.8158 17.1515L26.3984 17.2486L26.5142 17.271L28.0081 17.144L28.1388 16.3746L29.0276 16.2589L28.0379 14.2794L28.6953 13.7454L28.7027 12.8042L28.2172 12.3262L28.318 12.8528L27.8512 13.1515L25.334 13.5176L25.5207 14.1935L25.6813 15.8294Z" fill="white"/>
<path d="M28.1743 18.329L27.334 19.7184L28.6299 21.3318L29.108 21.4139L31.543 19.9723L31.3563 18.3066L29.0109 19.5428L28.1743 18.329Z" fill="white"/>
<defs>
<linearGradient id="paint0_linear_673_2" x1="19.563" y1="0.484375" x2="19.563" y2="39.6104" gradientUnits="userSpaceOnUse">
<stop stop-color="#F4815A"/>
<stop offset="1" stop-color="#F25E53"/>
</linearGradient>
</defs>
</svg>

<svg xmlns="http://www.w3.org/2000/svg" width="40" height="40" fill="none"><circle cx="19.563" cy="20.047" r="19.563" fill="url(#a)"/><path fill="#fff" d="M10.354 20.375a8.004 8.004 0 0 1 14.394-4.829l-.105-1.057a8.59 8.59 0 1 0-6.274 14.498h.46l-.58-.605a8.02 8.02 0 0 1-7.895-8.007"/><path fill="#fff" d="M18.36 12.808a7.563 7.563 0 0 0-.617 15.092l-.34-.336a7.267 7.267 0 1 1 7.223-10.869l.224-.037v-.194a7.56 7.56 0 0 0-6.49-3.656"/><path fill="#fff" d="M18.006 13.552v5.923a1 1 0 0 0-.153.078l-3.53-1.213-.4 1.161 3.538 1.218a.967.967 0 1 0 1.266-1.244v-5.923zm11.476 13.401-.333-.022h-.026l-1.464-2.637-.205-.34-.299-.467-.687-.164-.587-.153-.444-.124-.288-.074h-.074l.209-.344.523-.885.556-.937.598-1.001 1.143-1.92-1.095-.183-.205-.037-.28-.045-.684-.116-.272-.06-.206.038-.298.052-4.247.747-.269 1.598 3.9-.5-2.462 3.107-.478.56-3.313 3.29-.508.236 1.05 1.038.288.284.407.404.205.201.28-.276.25-.247a.9.9 0 0 0-.284-.201 2 2 0 0 0-.238-.086l-.056-.16-.05-.15 3.093-3.19 1.666.374.321.07.463.102.639.142.153.033 1.823 2.872.03.56 3.137-1.34s-.661-1.013-1.382-.049M25.681 15.83l.135 1.321.582.098.116.022 1.494-.127.13-.77.89-.115-.99-1.98.657-.534.008-.94-.486-.479.101.527-.467.299-2.517.366.187.675z"/><path fill="#fff" d="m28.174 18.329-.84 1.39 1.296 1.613.478.082 2.435-1.442-.187-1.665-2.345 1.236z"/><defs><linearGradient id="a" x1="19.563" x2="19.563" y1=".484" y2="39.61" gradientUnits="userSpaceOnUse"><stop stop-color="#F4815A"/><stop offset="1" stop-color="#F25E53"/></linearGradient></defs></svg>
